X:1
T:Slumber Song 
T:Charles James Dorn (1839 - 1909)
T:Guitar Album, Op.27
%%score ( 1 2 )
L:1/8
Q:3/8=60
M:6/8
K:C
V:1 treble-8 nm="Guitare classique"
V:2 treble-8 
V:1
"^Andante""_" [Ec]dc [FB]!2!AG | [Ec]dc [FB]AG | [Ec]de fGf | e!4!dc !>![GBg]3 | [Ec]dc [FB]AG | %5
 [Ec]dc [FB]AG | GBc !2!A!3!^c!4!d | [GB]ed [Ec]2 g | BGg cGg | fBG ecG | BGg cGg | [GB]3 [GBg]3 | %12
 [Gcg]gg [Gcg]ec | GcB !2!Af!4!d | eGc dGB | c3- c2 x!fine! |] !2!E!3!AB !1!cBA | [FB]A^G AEE | %18
 EAB cBA | ^GEG Bee | EAB cBA | [FB]A^G AEE | EAB cBA | ^GeG A2 e | !>!e[^GB]e !>!e[Ac]e | %25
 [^Ge]dB cAc | e[^GB]e e[Ac]e | eB^G E2 e | fdf ece | dBd cAc | !2!cB!3!A AB^G | A3- A2 x!D.C.! || %32
V:2
 C3 C3 | C3 C3 | C3 C3 | C3 G,3 | C3 C3 | C3 C3 | E,3 F,3 | G,3 C2 z | F3 E3 | D3 C3 | G,3 G,3 | %11
 G,3 G,3 | E,3 E,3 | E3 !3!F3 | G,3 G,3 | C3- C2 z |] A,3 A,3 | A,3 A,3 | A,3 A,3 | E,6 | A,3 A,3 | %21
 A,3 A,3 | A,3 A,3 | E,3 A,2 z | E,3 E,3 | E,3 A,3 | E,3 E,3 | E,3- E,2 z | D3 E3 | E,3 A,3 | %30
 !1!_E3 E,2 E, | A,3- A,2 z || %32

